X: 149
T: No_73_Second_Song_of_the_Dog_Feast.krn
%%abc-version 2.0
%%abcx-abcm2ps-target-version 5.9.1 (29 Sep 2008)
%%abc-creator hum2abc beta
%%abcx-conversion-date 2020/08/10 18:54:57
%%gracespace 0 6 6
%%humdrum-veritas 136567003
%%humdrum-veritas-data 335184288
%%linebreak <none>
%%barnumbers 0
L: 1/8
M: 2/4
%%staves {1 2}
V: 1 clef=bass
V: 2 clef=bass
K: C
[V:1] [K:clef=bass][M:2/4]E2E/D3/ | 
[V:2] [K:clef=bass][M:2/4](3!accent!G,, z G,, (3!accent!G,, z G,, | 
[V:1] ED D3/D/ ||  
[V:2] z4 ||  
[V:1] [M:3/4]D4(3DA,A, ||  
[V:2] [M:3/4]z6 ||  
[V:1] [M:2/4]E2E/D3/ | 
[V:2] [M:2/4]z4 | 
[V:1] ED D3/D/ ||  
[V:2] z4 ||  
[V:1] [M:3/4]D2>>D2D2 ||  
[V:2] [M:3/4]z6 ||  
[V:1] [M:2/4]D<C C/A,3/ | 
[V:2] [M:2/4]z4 | 
[V:1] CA, A,3/A,/ ||  
[V:2] z4 ||  
[V:1] [M:3/4]A,2>>A,2A,2 ||  
[V:2] [M:3/4]z6 ||  
[V:1] [M:2/4]A,<G, G,/E,3/ | 
[V:2] [M:2/4]z4 | 
[V:1] (3G,E,D, D,3/D,/ | 
[V:2] z4 | 
[V:1] D,4 | 
[V:2] z4 | 
[V:1] D,<C, C,/A,,3/ | 
[V:2] z4 | 
[V:1] C,A,, A,,3/A,,/ | 
[V:2] z4 | 
[V:1] A,,4- | 
[V:2] z4 | 
[V:1] A,,4 |]  
[V:2] z4 |]  


